anatomy-assets/svg/lower_bones_patella.svg

<?xml version="1.0" encoding="UTF-8" standalone="no"?>
<!-- Generator: Adobe Illustrator 12.0.0, SVG Export Plug-In . SVG Version: 6.00 Build 51448)  -->

<svg
   version="1.0"
   id="Layer_1"
   width="157.45488"
   height="446.52948"
   viewBox="0 0 157.45488 446.52947"
   overflow="visible"
   enable-background="new 0 0 435.687 841.89"
   xml:space="preserve"
   sodipodi:version="0.32"
   inkscape:version="1.4.2 (f4327f4, 2025-05-13)"
   sodipodi:docname="lower_bones_patella.svg"
   inkscape:output_extension="org.inkscape.output.svg.inkscape"
   style="display:inline;overflow:visible"
   xmlns:inkscape="http://www.inkscape.org/namespaces/inkscape"
   xmlns:sodipodi="http://sodipodi.sourceforge.net/DTD/sodipodi-0.dtd"
   xmlns="http://www.w3.org/2000/svg"
   xmlns:svg="http://www.w3.org/2000/svg"
   xmlns:rdf="http://www.w3.org/1999/02/22-rdf-syntax-ns#"
   xmlns:cc="http://creativecommons.org/ns#"
   xmlns:dc="http://purl.org/dc/elements/1.1/"><metadata
   id="metadata3098"><rdf:RDF><cc:Work
       rdf:about=""><dc:format>image/svg+xml</dc:format><dc:type
         rdf:resource="http://purl.org/dc/dcmitype/StillImage" /></cc:Work><cc:Work
       rdf:about=""><dc:format>image/svg+xml</dc:format><dc:type
         rdf:resource="http://purl.org/dc/dcmitype/StillImage" /></cc:Work></rdf:RDF></metadata><defs
   id="defs3096"><inkscape:perspective
   sodipodi:type="inkscape:persp3d"
   inkscape:vp_x="0 : 25.584482 : 1"
   inkscape:vp_y="0 : 1000 : 0"
   inkscape:vp_z="435.68702 : 25.584482 : 1"
   inkscape:persp3d-origin="217.84352 : -114.73053 : 1"
   id="perspective3100" />
		
		
		
		
	
		
		
	
		
		
		
		
		
	
	
	

		
		
		
	
			
			
		
				
				
				
				
				
			
	
	
</defs>
<sodipodi:namedview
   inkscape:window-height="1360"
   inkscape:window-width="1278"
   inkscape:pageshadow="2"
   inkscape:pageopacity="0.0"
   guidetolerance="10.0"
   gridtolerance="10.0"
   objecttolerance="10.0"
   borderopacity="1.0"
   bordercolor="#666666"
   pagecolor="#ffffff"
   id="base"
   showgrid="false"
   inkscape:zoom="1.9049022"
   inkscape:cx="96.067924"
   inkscape:cy="165.88778"
   inkscape:window-x="1913"
   inkscape:window-y="0"
   inkscape:current-layer="layer3"
   showguides="true"
   inkscape:guide-bbox="true"
   inkscape:showpageshadow="2"
   inkscape:pagecheckerboard="0"
   inkscape:deskcolor="#d1d1d1"
   inkscape:window-maximized="0" />
<g
   inkscape:groupmode="layer"
   id="layer3"
   inkscape:label="Skeleton"
   style="display:inline"
   transform="translate(-121.94541,-322.46856)"><g
     style="display:inline;overflow:visible"
     id="PatellaRight"
     inkscape:label="Patella">
	<path
   d="m 180.755,584.773 c -4.698,-4.028 -9.615,-5.254 -14.558,-1.356 -1.465,1.155 -4.251,2.186 -5.231,3.629 -0.95,1.399 -1.549,4.478 -1.4,6.115 0.232,2.555 2.67,4.852 4.285,6.765 1.458,1.726 3.382,4.255 5.633,4.773 5.525,1.275 10.236,-2.619 12.677,-6.985 1.258,-2.249 2.46,-3.595 2.602,-6.161 0.16,-2.901 -1.641,-4.749 -4.008,-6.78 z"
   id="path2389"
   style="fill:#f3d48c;stroke:#967348;stroke-width:0.3218" />
	<path
   d="m 175.25,603.838 c -7.515,3.753 -17.199,-11.348 -11.633,-13.121 -0.336,1.554 1.834,4.828 3.458,2.993 1.174,-1.329 -1.719,-3.062 -2.41,-3.794 0.286,-0.25 0.799,-0.436 1.205,-0.489 0.964,2.899 5.335,1.224 2.04,-1.098 0.871,-0.581 4.408,1.568 5.778,1.811 2.074,0.362 4.733,0.88 5.947,-1.276 -0.543,-0.492 -1.174,-1.217 -1.562,-1.89 2.196,-0.887 3.78,0.51 5.511,2.179 1.89,1.821 1.446,3.188 0.317,5.553 -1.67,3.492 -5.159,7.388 -8.651,9.132 z"
   id="path2391"
   style="fill:#dcc06d" />
	<path
   d="m 169.758,603.084 c 2.161,1.094 6.984,-1.682 5.921,-4.213 1.093,-0.837 2.089,-1.917 3.138,-2.734 0.082,0.277 0.23,0.52 0.308,0.759 3.321,-0.715 -0.067,-3.609 -1.216,-4.525 0.116,-0.733 0.268,-1.405 0.477,-2.12 3.839,-0.048 1.33,-3.376 0.148,-4.565 -0.542,0.21 -1.018,0.074 -1.599,0.194 0.044,-0.136 0.501,-1.085 0.574,-1.213 2.221,1.585 6.162,3.575 5.871,6.881 -0.371,4.229 -3.339,8.16 -6.596,10.464 -4.251,3.007 -9.122,3.666 -11.559,-2.092 2.688,-0.91 2.921,4.448 6.141,2.628"
   id="path2393"
   style="fill:#ccb25c" />
</g><g
     style="display:inline;overflow:visible"
     id="PatellaLeft"
     inkscape:label="Patella">
	<path
   d="m 237.796,584.717 c -4.699,-4.028 -9.614,-5.254 -14.559,-1.356 -1.462,1.155 -4.251,2.186 -5.229,3.629 -0.952,1.399 -1.55,4.478 -1.401,6.115 0.233,2.555 2.671,4.852 4.285,6.765 1.459,1.726 3.383,4.255 5.634,4.773 5.525,1.275 10.234,-2.619 12.677,-6.985 1.258,-2.249 2.461,-3.595 2.603,-6.161 0.157,-2.902 -1.644,-4.75 -4.01,-6.78 z"
   id="path2397"
   style="fill:#f3d48c;stroke:#967348;stroke-width:0.3218" />
	<path
   d="m 232.29,603.781 c -7.515,3.753 -17.197,-11.348 -11.633,-13.121 -0.335,1.554 1.834,4.829 3.457,2.993 1.176,-1.329 -1.719,-3.062 -2.41,-3.794 0.286,-0.25 0.8,-0.436 1.205,-0.488 0.965,2.898 5.337,1.223 2.041,-1.099 0.869,-0.581 4.406,1.568 5.778,1.811 2.073,0.362 4.732,0.88 5.946,-1.276 -0.544,-0.492 -1.176,-1.217 -1.562,-1.889 2.194,-0.887 3.779,0.509 5.512,2.178 1.89,1.821 1.444,3.188 0.315,5.553 -1.669,3.493 -5.156,7.389 -8.649,9.132 z"
   id="path2399"
   style="fill:#dcc06d" />
	<path
   d="m 226.799,603.027 c 2.16,1.094 6.982,-1.682 5.921,-4.212 1.094,-0.838 2.09,-1.918 3.137,-2.734 0.083,0.276 0.23,0.519 0.31,0.758 3.32,-0.715 -0.067,-3.609 -1.215,-4.525 0.115,-0.733 0.266,-1.404 0.475,-2.12 3.84,-0.048 1.329,-3.376 0.147,-4.565 -0.542,0.21 -1.018,0.074 -1.598,0.194 0.043,-0.136 0.502,-1.085 0.574,-1.213 2.22,1.585 6.162,3.575 5.871,6.881 -0.373,4.229 -3.34,8.16 -6.597,10.464 -4.25,3.007 -9.122,3.666 -11.558,-2.091 2.687,-0.911 2.92,4.447 6.14,2.627"
   id="path2401"
   style="fill:#ccb25c" />
</g></g></svg>

<?xml version="1.0" encoding="UTF-8" standalone="no"?>
<!-- Generator: Adobe Illustrator 12.0.0, SVG Export Plug-In . SVG Version: 6.00 Build 51448)  -->

<svg
   version="1.0"
   id="Layer_1"
   width="435.68701"
   height="841.89001"
   viewBox="0 0 435.687 841.89"
   overflow="visible"
   enable-background="new 0 0 435.687 841.89"
   xml:space="preserve"
   sodipodi:version="0.32"
   inkscape:version="1.4.2 (f4327f4, 2025-05-13)"
   sodipodi:docname="lower_bones_patella.svg"
   inkscape:output_extension="org.inkscape.output.svg.inkscape"
   style="overflow: visible; display: inline;"
   xmlns:inkscape="http://www.inkscape.org/namespaces/inkscape"
   xmlns:sodipodi="http://sodipodi.sourceforge.net/DTD/sodipodi-0.dtd"
   xmlns="http://www.w3.org/2000/svg"
   xmlns:svg="http://www.w3.org/2000/svg"
   xmlns:rdf="http://www.w3.org/1999/02/22-rdf-syntax-ns#"
   xmlns:cc="http://creativecommons.org/ns#"
   xmlns:dc="http://purl.org/dc/elements/1.1/"><metadata
   id="metadata3098"><rdf:RDF><cc:Work
       rdf:about=""><dc:format>image/svg+xml</dc:format><dc:type
         rdf:resource="http://purl.org/dc/dcmitype/StillImage" /></cc:Work><cc:Work
       rdf:about=""><dc:format>image/svg+xml</dc:format><dc:type
         rdf:resource="http://purl.org/dc/dcmitype/StillImage" /></cc:Work></rdf:RDF></metadata><defs
   id="defs3096"><inkscape:perspective
   sodipodi:type="inkscape:persp3d"
   inkscape:vp_x="0 : 420.94501 : 1"
   inkscape:vp_y="0 : 1000 : 0"
   inkscape:vp_z="435.68701 : 420.94501 : 1"
   inkscape:persp3d-origin="217.84351 : 280.63 : 1"
   id="perspective3100" />
		
		
		
		
	
		
		
	
		
		
		
		
		
	
	
	

		
		
		
	
			
			
		
				
				
				
				
				
			
	
	
</defs>
<sodipodi:namedview
   inkscape:window-height="1369"
   inkscape:window-width="2560"
   inkscape:pageshadow="2"
   inkscape:pageopacity="0.0"
   guidetolerance="10.0"
   gridtolerance="10.0"
   objecttolerance="10.0"
   borderopacity="1.0"
   bordercolor="#666666"
   pagecolor="#ffffff"
   id="base"
   showgrid="false"
   inkscape:zoom="1.9049022"
   inkscape:cx="217.85895"
   inkscape:cy="487.95156"
   inkscape:window-x="-8"
   inkscape:window-y="-8"
   inkscape:current-layer="layer3"
   showguides="true"
   inkscape:guide-bbox="true"
   inkscape:showpageshadow="2"
   inkscape:pagecheckerboard="0"
   inkscape:deskcolor="#d1d1d1"
   inkscape:window-maximized="1" />
<g
   inkscape:groupmode="layer"
   id="layer3"
   inkscape:label="Skeleton"
   style="display: inline;"><g
     style="overflow: visible; display: inline;"
     id="PatellaRight"
     inkscape:label="Patella">
	<path
   d="M 180.755,584.773 C 176.057,580.745 171.14,579.519 166.197,583.417 C 164.732,584.572 161.946,585.603 160.966,587.046 C 160.016,588.445 159.417,591.524 159.566,593.161 C 159.798,595.716 162.236,598.013 163.851,599.926 C 165.309,601.652 167.233,604.181 169.484,604.699 C 175.009,605.974 179.72,602.08 182.161,597.714 C 183.419,595.465 184.621,594.119 184.763,591.553 C 184.923,588.652 183.122,586.804 180.755,584.773 z"
   id="path2389"
   style="fill: rgb(243, 212, 140); stroke: rgb(150, 115, 72); stroke-width: 0.3218;" />
	<path
   d="M 175.25,603.838 C 167.735,607.591 158.051,592.49 163.617,590.717 C 163.281,592.271 165.451,595.545 167.075,593.71 C 168.249,592.381 165.356,590.648 164.665,589.916 C 164.951,589.666 165.464,589.48 165.87,589.427 C 166.834,592.326 171.205,590.651 167.91,588.329 C 168.781,587.748 172.318,589.897 173.688,590.14 C 175.762,590.502 178.421,591.02 179.635,588.864 C 179.092,588.372 178.461,587.647 178.073,586.974 C 180.269,586.087 181.853,587.484 183.584,589.153 C 185.474,590.974 185.03,592.341 183.901,594.706 C 182.231,598.198 178.742,602.094 175.25,603.838 z"
   id="path2391"
   style="fill: rgb(220, 192, 109);" />
	<path
   d="M 169.758,603.084 C 171.919,604.178 176.742,601.402 175.679,598.871 C 176.772,598.034 177.768,596.954 178.817,596.137 C 178.899,596.414 179.047,596.657 179.125,596.896 C 182.446,596.181 179.058,593.287 177.909,592.371 C 178.025,591.638 178.177,590.966 178.386,590.251 C 182.225,590.203 179.716,586.875 178.534,585.686 C 177.992,585.896 177.516,585.76 176.935,585.88 C 176.979,585.744 177.436,584.795 177.509,584.667 C 179.73,586.252 183.671,588.242 183.38,591.548 C 183.009,595.777 180.041,599.708 176.784,602.012 C 172.533,605.019 167.662,605.678 165.225,599.92 C 167.913,599.01 168.146,604.368 171.366,602.548"
   id="path2393"
   style="fill: rgb(204, 178, 92);" />
</g><g
     style="overflow: visible; display: inline;"
     id="PatellaLeft"
     inkscape:label="Patella">
	<path
   d="M 237.796,584.717 C 233.097,580.689 228.182,579.463 223.237,583.361 C 221.775,584.516 218.986,585.547 218.008,586.99 C 217.056,588.389 216.458,591.468 216.607,593.105 C 216.84,595.66 219.278,597.957 220.892,599.87 C 222.351,601.596 224.275,604.125 226.526,604.643 C 232.051,605.918 236.76,602.024 239.203,597.658 C 240.461,595.409 241.664,594.063 241.806,591.497 C 241.963,588.595 240.162,586.747 237.796,584.717 z"
   id="path2397"
   style="fill: rgb(243, 212, 140); stroke: rgb(150, 115, 72); stroke-width: 0.3218;" />
	<path
   d="M 232.29,603.781 C 224.775,607.534 215.093,592.433 220.657,590.66 C 220.322,592.214 222.491,595.489 224.114,593.653 C 225.29,592.324 222.395,590.591 221.704,589.859 C 221.99,589.609 222.504,589.423 222.909,589.371 C 223.874,592.269 228.246,590.594 224.95,588.272 C 225.819,587.691 229.356,589.84 230.728,590.083 C 232.801,590.445 235.46,590.963 236.674,588.807 C 236.13,588.315 235.498,587.59 235.112,586.918 C 237.306,586.031 238.891,587.427 240.624,589.096 C 242.514,590.917 242.068,592.284 240.939,594.649 C 239.27,598.142 235.783,602.038 232.29,603.781 z"
   id="path2399"
   style="fill: rgb(220, 192, 109);" />
	<path
   d="M 226.799,603.027 C 228.959,604.121 233.781,601.345 232.72,598.815 C 233.814,597.977 234.81,596.897 235.857,596.081 C 235.94,596.357 236.087,596.6 236.167,596.839 C 239.487,596.124 236.1,593.23 234.952,592.314 C 235.067,591.581 235.218,590.91 235.427,590.194 C 239.267,590.146 236.756,586.818 235.574,585.629 C 235.032,585.839 234.556,585.703 233.976,585.823 C 234.019,585.687 234.478,584.738 234.55,584.61 C 236.77,586.195 240.712,588.185 240.421,591.491 C 240.048,595.72 237.081,599.651 233.824,601.955 C 229.574,604.962 224.702,605.621 222.266,599.864 C 224.953,598.953 225.186,604.311 228.406,602.491"
   id="path2401"
   style="fill: rgb(204, 178, 92);" />
</g></g></svg>
